X: 1
T: O Sole Mio   [G]
C: music: Eduardo di Capua 1898
%C: words: Giovanni Capurro
N: Words by G. Capurro
Z: 1999 John Chambers <jc@trillian.mit.edu>
M: 4/4
L: 1/4
K: G
|: "G"zd cB | A2 G2 | GA BG | "Am"F2 E2- | EF GA | "D7"FE E2- | EF GA | "G"ED D2 |
| "G"zd cB | A2 G2 | GA BG | "Am"{G}F2 E2- | Ec BA | "G"dB AG | "D7"A3 "^rit..."B | "G"A{BA}G3 ||
|| zHg HgHf | "G"{f}d2 d2- | df fe | "Am"{e}c4- | cf fe | "Am"{e}c2 c2- | "D7"cA Bc | "G"d4 |
| z2 z d | "Cm"_e4- | ec g>_e | "G"d2 d2- | dB AG | "D7"d4 | zB {AB}A>F | "G"G4 :|
y4 y4 y4 y4 y4 y4 |["Coda" zB AG | "D7"d4 | zd [bd]>[ac] | "G"[g4B4] |]
